svg/fluentui-system-icons/ic_fluent_wifi_settings_20_filled.svg

<svg width="20" height="20" viewBox="0 0 20 20" fill="none" xmlns="http://www.w3.org/2000/svg">
<path d="M17.8446 8.11724C17.5132 7.63716 17.1326 7.17664 16.7291 6.77305C13.0317 3.07565 7.03698 3.07565 3.33957 6.77305C2.95121 7.16142 2.57566 7.62063 2.2354 8.1111C1.99929 8.45144 2.08379 8.91873 2.42413 9.15484C2.76446 9.39094 3.23176 9.30644 3.46786 8.96611C3.7597 8.54544 4.07925 8.1547 4.40023 7.83371C7.51185 4.7221 12.5568 4.7221 15.6684 7.83371C16.0063 8.17164 16.3291 8.56224 16.6101 8.96928C16.8453 9.31018 17.3124 9.3958 17.6533 9.16052C17.9942 8.92524 18.0799 8.45815 17.8446 8.11724ZM7.1137 11.0504C8.24321 9.9209 9.86413 9.58232 11.2882 10.0347C10.7885 10.3948 10.3516 10.8367 9.9972 11.3409C9.33645 11.3502 8.67854 11.6069 8.17436 12.1111C7.94772 12.3377 7.76299 12.6148 7.62736 12.9248C7.46131 13.3043 7.01908 13.4773 6.63961 13.3112C6.26013 13.1452 6.08711 12.703 6.25315 12.3235C6.46166 11.847 6.75066 11.4134 7.1137 11.0504ZM14.59 8.66119C14.7028 8.77394 14.8119 8.89235 14.9169 9.01556C14.7793 9.00525 14.6402 9 14.5 9C13.9606 9 13.4393 9.07766 12.9467 9.22241C11.0133 7.80913 8.2855 7.97561 6.53926 9.72185C6.16418 10.0969 5.8597 10.5184 5.62521 10.982C5.43825 11.3516 4.98705 11.4997 4.61743 11.3127C4.24781 11.1257 4.09973 10.6746 4.28669 10.3049C4.59263 9.70008 4.99074 9.14905 5.4786 8.66119C7.99466 6.14514 12.074 6.14514 14.59 8.66119ZM12.0667 11.4422C12.37 12.5233 11.724 13.6423 10.636 13.9202L10.175 14.0379C10.16 14.1899 10.1523 14.3441 10.1523 14.5001C10.1523 14.6878 10.1634 14.8727 10.185 15.0544L10.5346 15.137C11.654 15.4017 12.32 16.5538 11.9906 17.656L11.8643 18.0788C12.1215 18.282 12.4012 18.4562 12.699 18.5967L13.0239 18.2525C13.8138 17.4162 15.1445 17.4169 15.9335 18.2541L16.2708 18.612C16.5632 18.4771 16.8386 18.3098 17.0927 18.1144L16.9365 17.5578C16.6332 16.4766 17.2792 15.3577 18.3672 15.0798L18.8277 14.9621C18.8427 14.8102 18.8504 14.6561 18.8504 14.5001C18.8504 14.3123 18.8393 14.1272 18.8177 13.9455L18.4687 13.863C17.3492 13.5983 16.6832 12.4462 17.0126 11.344L17.1388 10.9217C16.8815 10.7184 16.6018 10.5442 16.304 10.4036L15.9793 10.7474C15.1895 11.5837 13.8587 11.583 13.0698 10.7459L12.7324 10.3879C12.44 10.5228 12.1646 10.6901 11.9105 10.8854L12.0667 11.4422ZM14.5014 15.5001C13.9491 15.5001 13.5014 15.0524 13.5014 14.5001C13.5014 13.9478 13.9491 13.5001 14.5014 13.5001C15.0536 13.5001 15.5014 13.9478 15.5014 14.5001C15.5014 15.0524 15.0536 15.5001 14.5014 15.5001Z" fill="#212121"/>
</svg>

<svg xmlns="http://www.w3.org/2000/svg" width="20" height="20"><path d="M17.845 8.117A9.468 9.468 0 0 0 3.34 6.773a9.842 9.842 0 0 0-1.105 1.338.75.75 0 1 0 1.233.855A8.41 8.41 0 0 1 4.4 7.834a7.968 7.968 0 0 1 12.21 1.135.75.75 0 1 0 1.235-.852ZM7.114 11.05a4.13 4.13 0 0 1 4.174-1.015c-.5.36-.936.802-1.29 1.306-.662.01-1.32.266-1.824.77a2.648 2.648 0 0 0-.547.814.75.75 0 1 1-1.374-.602c.209-.476.498-.91.86-1.273Zm7.476-2.389c.113.113.222.231.327.355a5.58 5.58 0 0 0-1.97.206 4.944 4.944 0 0 0-7.322 1.76.75.75 0 1 1-1.338-.677A6.443 6.443 0 0 1 14.59 8.66Zm-2.523 2.781a2 2 0 0 1-1.431 2.478l-.461.118a4.706 4.706 0 0 0 .01 1.016l.35.083a2 2 0 0 1 1.456 2.519l-.127.423c.257.203.537.377.835.518l.325-.345a2 2 0 0 1 2.91.002l.337.358c.292-.135.568-.302.822-.498l-.157-.556a2 2 0 0 1 1.431-2.478l.46-.118a4.7 4.7 0 0 0-.01-1.017l-.348-.082a2 2 0 0 1-1.456-2.519l.126-.422a4.326 4.326 0 0 0-.835-.518l-.325.343a2 2 0 0 1-2.91-.001l-.337-.358a4.316 4.316 0 0 0-.821.497l.156.557ZM14.5 15.5a1 1 0 1 1 0-2 1 1 0 0 1 0 2Z"/></svg>
